src/2-landmarks/assistant--handle-document.svg

<svg width="1300" height="1000" viewBox="0 0 1300 1000" fill="none" xmlns="http://www.w3.org/2000/svg"><path d="m693.863 504.647 38.908-67.421 85.111 49.118-38.908 67.42-85.111-49.117Z" fill="#fff" stroke="#000" stroke-width="7"/><path d="M0 900h1300v100H0V900Zm1079.43-430.838c0-1.662-5.91-57.127-23.43-93.162-15.05-29.175-39.06-33.545-77.183-33.979-36.975-.426-67.042 5.516-82.944 33.197-15.441 36.104-30.279 89.186-30.279 89.186L814 502.5l-23.602 6.332c-9.235 2.478-14.204 12.493-10.591 21.345a11.915 11.915 0 0 0 11.631 7.397L832.5 535.5l79-43L897.996 718l1.5 156-15.598 6.406a20.001 20.001 0 0 0-12.402 18.501V900h93.5l-1.5-18a9.97 9.97 0 0 0 4.439-8.408L966.496 746l9.5-125 9 125v128a10 10 0 0 0 4 8l-1.5 18h92.004c0-7.632-4.4-14.58-11.3-17.842L1052 874.5l2-156.5-6.5-118.5 5.86 22.986c.09.318.33.569.65.657 12.05 3.376 23.88-6.04 23.29-18.546l-1.52-32.227s3.65-59.37 3.65-103.208Z" fill="#000"/><path d="M1072.43 472.47s-4.44-56.684-20.98-91.955c-14.2-28.558-36.99-30.07-72.96-30.495-34.892-.417-62.265 3.4-77.27 30.495C886.648 415.854 873 469.5 873 469.5L817 509l-27.066 8.934a6.293 6.293 0 0 0 2.424 12.252l37.424-2.694L910 483.5l12.789-64.418a1.318 1.318 0 0 1 2.609.352L920.5 487.5l-3 30.5-3 55.855-9.5 143.152 2.5 161.008-21.216 9.112a10 10 0 0 0-6.052 9.021l-.065 3.852H958l-2.09-24.01a4.965 4.965 0 0 0 4.993-5.049l-2.158-126.821 13.379-145.808a4.504 4.504 0 0 1 8.974.045l11.912 145.778-.726 127.575a4.286 4.286 0 0 0 4.316 4.31L994.609 900h76.891c0-5.192-2.97-9.927-7.64-12.19l-20.18-9.77 2.16-161.02L1037 518l-3-30-5.31-67.565c-.1-1.311.94-2.43 2.25-2.424 1.13.005 2.08.843 2.22 1.96l6.35 49.119 8.49 104.402 11.22 42.713c.06.25.29.425.55.425 6.61 0 11.84-5.604 11.38-12.2l-2.16-30.938 3.44-101.022Z" fill="#fff"/><path d="M989.42 336.086c-3.769 1.408-10.806 1.91-12.648 1.914 0 0-8.301-.069-13.136-1.914-5.448-2.079-8.483-4.109-12.162-8.575-2.489-3.022-4.438-8.223-5.321-10.853-.362-1.079-.612-2.188-.802-3.31l-4.093-24.154s-.495-3.492-.486-5.742c.019-5.351.745-8.493 2.918-13.398 2.233-5.038 4.185-7.735 8.271-11.484 4.355-3.996 7.495-5.742 13.135-7.625 4.379-1.462 7.051-1.907 11.676-1.945 4.962.167 6.81.478 11.547 1.945 4.741 1.577 9.581 4.373 13.261 7.625 3.69 3.252 6.26 7.101 8.27 11.484s2.92 8.615 2.92 13.398c0 1.803-.2 3.959-.49 5.742l-4.86 23.833c-.25 1.229-.57 2.441-1.01 3.617-1.04 2.793-3.2 8.177-5.31 10.829-2.929 3.676-7.171 6.929-11.68 8.613Z" fill="#000"/><path d="M986.961 329.387c-3.036 1.186-8.705 1.609-10.189 1.613 0 0-6.687-.058-10.582-1.613-4.388-1.752-6.833-3.462-9.797-7.226-1.948-2.474-3.485-6.68-4.223-8.951-.338-1.039-.567-2.105-.742-3.184l-3.265-20.155s-.398-2.943-.391-4.839c.015-4.509.6-7.156 2.351-11.29 1.798-4.246 3.371-6.518 6.662-9.677 3.509-3.368 6.038-4.839 10.581-6.426 3.528-1.232 5.68-1.607 9.406-1.639 3.997.141 5.486.403 9.302 1.639 3.819 1.329 7.717 3.685 10.684 6.426 2.967 2.74 5.042 5.983 6.662 9.677s2.35 7.26 2.35 11.29c0 1.52-.16 3.337-.39 4.839l-3.87 19.862c-.24 1.184-.53 2.351-.94 3.486-.866 2.407-2.555 6.742-4.204 8.91-2.356 3.098-5.774 5.839-9.405 7.258Z" fill="#fff"/></svg>

<svg width="1300" height="1000" viewBox="0 0 1300 1000" fill="none" xmlns="http://www.w3.org/2000/svg">
<path d="M693.863 504.647L732.771 437.226L817.882 486.344L778.974 553.764L693.863 504.647Z" fill="white" stroke="black" stroke-width="7"/>
<path d="M0 900H1300V1000H0V900Z" fill="black"/>
<path d="M1079.43 469.162C1079.43 467.5 1073.52 412.035 1056 376C1040.95 346.825 1016.94 342.455 978.817 342.021C941.842 341.595 911.775 347.537 895.873 375.218C880.432 411.322 865.594 464.404 865.594 464.404L814 502.5L790.398 508.832C781.163 511.31 776.194 521.325 779.807 530.177C781.72 534.863 786.384 537.829 791.438 537.574L832.5 535.5L911.5 492.5L897.996 718L899.496 874L883.898 880.406C876.395 883.488 871.496 890.796 871.496 898.907V900H964.996L963.496 882C966.303 880.129 967.973 876.965 967.935 873.592L966.496 746L975.996 621L984.996 746V874C984.996 877.148 986.478 880.111 988.996 882L987.496 900H1079.5C1079.5 892.368 1075.1 885.42 1068.2 882.158L1052 874.5L1054 718L1047.5 599.5L1053.36 622.486C1053.45 622.804 1053.69 623.055 1054.01 623.143C1066.06 626.519 1077.89 617.103 1077.3 604.597L1075.78 572.37C1075.78 572.37 1079.43 513 1079.43 469.162Z" fill="black"/>
<path d="M1072.43 472.47C1072.43 472.47 1067.99 415.786 1051.45 380.515C1037.25 351.957 1014.46 350.445 978.49 350.02C943.598 349.603 916.225 353.42 901.22 380.515C886.648 415.854 873 469.5 873 469.5L817 509L789.934 517.934C787.157 518.851 785.377 521.56 785.639 524.473C785.946 527.891 788.935 530.433 792.358 530.186L829.782 527.492L910 483.5L922.789 419.082C922.911 418.465 923.453 418.02 924.082 418.02C924.848 418.02 925.453 418.67 925.398 419.434L920.5 487.5L917.5 518L914.5 573.855L905 717.007L907.5 878.015L886.284 887.127C882.667 888.681 880.297 892.212 880.232 896.148L880.167 900H958L955.91 875.99C958.696 876.006 960.951 873.727 960.903 870.941L958.745 744.12L972.124 598.312C972.337 595.994 974.281 594.22 976.609 594.22C978.954 594.22 980.907 596.02 981.098 598.357L993.01 744.135L992.284 871.71C992.271 874.098 994.212 876.037 996.6 876.02L994.609 900H1071.5C1071.5 894.808 1068.53 890.073 1063.86 887.81L1043.68 878.04L1045.84 717.02L1037 518L1034 488L1028.69 420.435C1028.59 419.124 1029.63 418.005 1030.94 418.011C1032.07 418.016 1033.02 418.854 1033.16 419.971L1039.51 469.09L1048 573.492L1059.22 616.205C1059.28 616.455 1059.51 616.63 1059.77 616.63C1066.38 616.63 1071.61 611.026 1071.15 604.43L1068.99 573.492L1072.43 472.47Z" fill="white"/>
<path d="M989.42 336.086C985.651 337.494 978.614 337.996 976.772 338C976.772 338 968.471 337.931 963.636 336.086C958.188 334.007 955.153 331.977 951.474 327.511C948.985 324.489 947.036 319.288 946.153 316.658C945.791 315.579 945.541 314.47 945.351 313.348L941.258 289.194C941.258 289.194 940.763 285.702 940.772 283.452C940.791 278.101 941.517 274.959 943.69 270.054C945.923 265.016 947.875 262.319 951.961 258.57C956.316 254.574 959.456 252.828 965.096 250.945C969.475 249.483 972.147 249.038 976.772 249C981.734 249.167 983.582 249.478 988.319 250.945C993.06 252.522 997.9 255.318 1001.58 258.57C1005.27 261.822 1007.84 265.671 1009.85 270.054C1011.86 274.437 1012.77 278.669 1012.77 283.452C1012.77 285.255 1012.57 287.411 1012.28 289.194L1007.42 313.027C1007.17 314.256 1006.85 315.468 1006.41 316.644C1005.37 319.437 1003.21 324.821 1001.1 327.473C998.171 331.149 993.929 334.402 989.42 336.086Z" fill="black"/>
<path d="M986.961 329.387C983.925 330.573 978.256 330.996 976.772 331C976.772 331 970.085 330.942 966.19 329.387C961.802 327.635 959.357 325.925 956.393 322.161C954.445 319.687 952.908 315.481 952.17 313.21C951.832 312.171 951.603 311.105 951.428 310.026L948.163 289.871C948.163 289.871 947.765 286.928 947.772 285.032C947.787 280.523 948.372 277.876 950.123 273.742C951.921 269.496 953.494 267.224 956.785 264.065C960.294 260.697 962.823 259.226 967.366 257.639C970.894 256.407 973.046 256.032 976.772 256C980.769 256.141 982.258 256.403 986.074 257.639C989.893 258.968 993.791 261.324 996.758 264.065C999.725 266.805 1001.8 270.048 1003.42 273.742C1005.04 277.436 1005.77 281.002 1005.77 285.032C1005.77 286.552 1005.61 288.369 1005.38 289.871L1001.51 309.733C1001.27 310.917 1000.98 312.084 1000.57 313.219C999.704 315.626 998.015 319.961 996.366 322.129C994.01 325.227 990.592 327.968 986.961 329.387Z" fill="white"/>
</svg>
